X: 5305
T: Brown's Kitchen
R: polka
M: 2/4
K: Gmajor
A|:B2 DG|B2 AB|c2 BA|GA Bc|
d2 DG|B2 AB|d2 cA|AG GA:|
|:B/c/d ef|g2 ag|fe/f/ ef|ed BA|
B/c/d ef|g2 ag|fe/f/ ef|ag gA:|

